icons/pharmacy-15.svg

<?xml version="1.0" encoding="utf-8"?>
<!-- Generator: Adobe Illustrator 19.2.1, SVG Export Plug-In . SVG Version: 6.00 Build 0)  -->
<!DOCTYPE svg PUBLIC "-//W3C//DTD SVG 1.1//EN" "http://www.w3.org/Graphics/SVG/1.1/DTD/svg11.dtd">
<svg version="1.1" id="Layer_1" xmlns="http://www.w3.org/2000/svg" xmlns:xlink="http://www.w3.org/1999/xlink" x="0px" y="0px"
	 width="15px" height="15px" viewBox="0 0 15 15" style="enable-background:new 0 0 15 15;" xml:space="preserve">
<path d="M9.5,4l1.07-1.54c0.0599,0.0046,0.1201,0.0046,0.18,0c0.6904-0.0004,1.2497-0.5603,1.2494-1.2506
	C11.999,0.519,11.4391-0.0404,10.7487-0.04C10.0584-0.0396,9.499,0.5203,9.4994,1.2106c0,0.0131,0.0002,0.0262,0.0006,0.0394
	c0,0,0,0.07,0,0.1L7,4H9.5z M12,6V5H3v1l1.5,3.5L3,13v1h9v-1l-1-3.5L12,6z M10,10H8v2H7v-2H5V9h2V7h1v2h2V10z"/>
</svg>

<svg id="Layer_1" data-name="Layer 1" xmlns="http://www.w3.org/2000/svg" width="15" height="15" viewBox="0 0 15 15">
  <title>pharmacy-15</title>
  <path d="M9.5,4l1.07-1.54a1.17,1.17,0,0,0,.18,0A1.25,1.25,0,1,0,9.5,1.25s0,0.07,0,.1L7,4H9.5ZM12,6V5H3V6L4.5,9.5,3,13v1h9V13L11,9.5Zm-2,4H8v2H7V10H5V9H7V7H8V9h2v1Z"/>
</svg>
